icons/cone_test_on_walls.svg

<svg width="48" height="48" viewBox="0 0 48 48" fill="none" xmlns="http://www.w3.org/2000/svg">
<path fill-rule="evenodd" clip-rule="evenodd" d="M17.7085 38.5131C18.4858 38.2187 19 37.4741 19 36.6428V34.2439L31.9859 30.3481C32.5055 31.974 33.9785 33.1465 35.7144 33.1465C37.8841 33.1465 39.643 31.3149 39.643 29.0556C39.643 28.8415 39.6272 28.6314 39.5968 28.4262C41.0313 27.5845 42 25.9833 42 24.1465C42 22.3097 41.0313 20.7085 39.5968 19.8667C39.6272 19.6616 39.643 19.4514 39.643 19.2374C39.643 16.978 37.8841 15.1465 35.7144 15.1465C34.0743 15.1465 32.6689 16.1931 32.0806 17.68L19 13.7558V11.3572C19 10.526 18.4858 9.78138 17.7085 9.48692L9.38557 6.33432C7.74994 5.71476 6 6.92318 6 8.67222V39.3278C6 41.0769 7.74994 42.2853 9.38557 41.6657L17.7085 38.5131ZM8.67711 8.20464C8.34999 8.08072 8 8.32241 8 8.67222V39.3278C8 39.6776 8.34999 39.9193 8.67711 39.7954L17 36.6428V34.8439L13.6131 35.8599C13.4132 35.9522 13.2085 36 13 36C10.7909 36 9 30.6274 9 24C9 17.3726 10.7909 12 13 12C13.2077 12 13.4117 12.0475 13.6108 12.139L17 13.1558L17 11.3572L8.67711 8.20464ZM13.9311 31.8528C13.6132 32.8063 13.2784 33.4413 13 33.8013C12.7216 33.4413 12.3868 32.8063 12.0689 31.8528C11.4297 29.9351 11 27.1586 11 24C11 20.8414 11.4297 18.0649 12.0689 16.1472C12.3868 15.1937 12.7216 14.5587 13 14.1987C13.2784 14.5587 13.6132 15.1937 13.9311 16.1472C14.5703 18.0649 15 20.8414 15 24C15 27.1586 14.5703 29.9351 13.9311 31.8528ZM31.581 27.9577C31.2266 27.0576 31.0001 25.6846 31.0001 24.1465C31.0001 22.415 31.2871 20.8929 31.7205 20.0189C30.35 20.2036 29 21.7258 29 24C29 26.197 30.2598 27.6922 31.581 27.9577ZM15.5748 14.8163L29.3012 18.9342C27.8717 20.0371 27 21.9784 27 24C27 26.0214 27.8716 27.9626 29.3008 29.0655L15.575 33.1833C16.4463 30.982 17 27.685 17 24C17 20.3148 16.4463 17.0175 15.5748 14.8163ZM33.5464 20.8439L33.9026 20.2429L33.8072 19.5509C33.7932 19.4496 33.7858 19.345 33.7858 19.2374C33.7858 18.0055 34.7248 17.1465 35.7144 17.1465C36.704 17.1465 37.643 18.0055 37.643 19.2374C37.643 19.353 37.6345 19.4651 37.6184 19.5734L37.4204 20.9086L38.5846 21.5917C39.4086 22.0752 40 23.0208 40 24.1465C40 25.2721 39.4086 26.2177 38.5846 26.7013L37.4204 27.3844L37.6184 28.7196C37.6345 28.8279 37.643 28.94 37.643 29.0556C37.643 30.2874 36.704 31.1465 35.7144 31.1465C34.7248 31.1465 33.7858 30.2874 33.7858 29.0556C33.7858 28.948 33.7932 28.8434 33.8072 28.7421L33.9026 28.05L33.5464 27.449C33.3288 27.0819 33.0001 25.8912 33.0001 24.1465C33.0001 22.4018 33.3288 21.2111 33.5464 20.8439Z" fill="black"/>
</svg>

<svg
  xmlns="http://www.w3.org/2000/svg"
  width="24"
  height="24"
  viewBox="0 0 24 24"
  fill="none"
  stroke="currentColor"
  stroke-width="2"
  stroke-linecap="round"
  stroke-linejoin="round"
>
  <path
    fill-rule="evenodd"
    d="M17.709 38.513A2 2 0 0 0 19 36.643v-2.4l12.986-3.895c.52 1.626 1.992 2.799 3.728 2.799 2.17 0 3.929-1.832 3.929-4.091q0-.323-.046-.63C41.03 27.585 42 25.983 42 24.146c0-1.836-.969-3.437-2.403-4.28a4 4 0 0 0 .046-.629c0-2.259-1.759-4.09-3.929-4.09-1.64 0-3.045 1.046-3.633 2.533L19 13.756v-2.399a2 2 0 0 0-1.291-1.87L9.386 6.334A2.5 2.5 0 0 0 6 8.672v30.656a2.5 2.5 0 0 0 3.386 2.338zM8.677 8.205A.5.5 0 0 0 8 8.672v30.656a.5.5 0 0 0 .677.467L17 36.643v-1.8l-3.387 1.017q-.3.139-.613.14c-2.21 0-4-5.373-4-12s1.79-12 4-12q.313 0 .61.139L17 13.156v-1.799zm5.254 23.648c-.318.953-.653 1.588-.931 1.948-.278-.36-.613-.995-.931-1.948C11.429 29.935 11 27.159 11 24s.43-5.935 1.069-7.853c.318-.953.653-1.588.931-1.948.278.36.613.995.931 1.948C14.571 18.065 15 20.841 15 24s-.43 5.935-1.069 7.853m17.65-3.895c-.354-.9-.58-2.273-.58-3.811 0-1.732.286-3.254.72-4.128C30.35 20.204 29 21.726 29 24c0 2.197 1.26 3.692 2.581 3.958M15.575 14.816 29.3 18.934C27.871 20.037 27 21.978 27 24s.872 3.963 2.3 5.066l-13.725 4.117C16.446 30.982 17 27.685 17 24s-.554-6.983-1.425-9.184m17.971 6.028.357-.601-.096-.692a2 2 0 0 1-.021-.314c0-1.231.939-2.09 1.928-2.09.99 0 1.929.859 1.929 2.09q0 .174-.025.336l-.198 1.336 1.165.683c.824.483 1.415 1.429 1.415 2.555 0 1.125-.591 2.07-1.415 2.554l-1.165.683.198 1.336q.025.162.025.336c0 1.231-.939 2.09-1.929 2.09s-1.928-.859-1.928-2.09q0-.162.021-.314l.096-.692-.357-.601c-.217-.367-.546-1.558-.546-3.303s.329-2.935.546-3.302"
    clip-rule="evenodd"
  />
</svg>
